X: 3
T: The Wandering Minstrel
R: jig
M: 6/8
L: 1/8
K: Dmaj
|: ADA BAF | Ade fdB | AFA BAF | FdF EFG |
ADA BAF | Ade fdB | AdB AFE |1 FDD D3 :|2 FDD D2g ||
|: faf ede | fdB AFA | B2G Bcd | AFD E2g |
faf ede | fdB AFA | AdB AFE | FDD D2g :|
|: fdf afd | gbe gbe | fdf afd | ceA ceg |
fdf afd | gbe gbe | fdf ece |1 fdd d2g :|2 fdd d3 ||


Tune 2025	Setting 24229

